X:289
T:Dunmore Lasses, The
T:Road to Knock, The
R:reel
D:Matt Molloy
Z:id:hn-reel-289
M:C|
K:Em
~E3F GFGA | Be~e2 Be~e2 | EDEF G2BG | A2BA GEFD |
~E3F GFGA | Beed ~e3f | feed edBG |1 A2BA GEFD :|2 AcBA GE~E2 ||
|: gfeg fedf | Be~e2 Be~e2 | g2eg fedB | AcBA GE~E2 |
g2eg fedc | Beed ~e3f | (3gfe fd edBG |1 A2BA GE~E2 :|2 A2BA GEFD ||
P:variations
|:EDEF ~G3A | Beed Be~e2 | ~E3F G2dB | AcBA GEFD |
EDEF ~G3A | Be~e2 Beef | g2fd edBG |1 AcBA GEFD :|2 AcBA GE~E2 ||
|: g3e fedf | Beed Beef | gfeg fedB | A2BA GE~E2 |
gfeg fedc | Beed ~e3f | gbge fdBG |1 AGBA GE~E2 :|2 AGBA GEFD ||

